; generated by PrusaSlicer 2.9.2 on 2025-07-14 at 18:35:26 UTC


;
;
; 

; external perimeters extrusion width = 0.60mm
; perimeters extrusion width = 0.50mm
; infill extrusion width = 0.50mm
; solid infill extrusion width = 0.50mm
; top infill extrusion width = 0.45mm
; support material extrusion width = 0.38mm
; first layer extrusion width = 0.42mm

M73 P0 R107
M73 Q0 S108
M201 X1000 Y1000 Z200 E5000 ; sets maximum accelerations, mm/sec^2
M203 X200 Y200 Z12 E120 ; sets maximum feedrates, mm / sec
M204 S1250 T1250 ; sets acceleration (S) and retract acceleration (R), mm/sec^2
M205 X8.00 Y8.00 Z0.40 E4.50 ; sets the jerk limits, mm/sec
M205 S0 T0 ; sets the minimum extruding and travel feed rate, mm/sec

; printing object Body3.stl id:0 copy 0
; stop printing object Body3.stl id:0 copy 0

;TYPE:Custom
M862.3 P "MK3S" ; printer model check
M862.1 P0.4 ; nozzle diameter check
M115 U3.14.1 ; tell printer latest fw version
G90 ; use absolute coordinates
M83 ; extruder relative mode
M104 S215 ; set extruder temp
M140 S60 ; set bed temp
M190 S60 ; wait for bed temp
M109 S215 ; wait for extruder temp
G28 W ; home all without mesh bed level
G80 X71.7732 Y57.7071 W109.982 H94.6582 ; mesh bed levelling

G1 Z0.2 F720
G1 Y-3 F1000 ; go outside print area
G92 E0
G1 X60 E9 F1000 ; intro line
G1 X100 E12.5 F1000 ; intro line

G92 E0
M221 S95

; Don't change E values below. Excessive value can damage the printer.

M907 E538 ; set extruder motor current
G21 ; set units to millimeters
G90 ; use absolute coordinates
M83 ; use relative distances for extrusion

M900 K0.05 ; Filament gcode LA 1.5
M900 K30 ; Filament gcode LA 1.0




M107
;LAYER_CHANGE
;Z:0.2
;HEIGHT:0.2
G1 E-.8 F2100
G1 Z.6 F720
G1 X89.752 Y69.447 F10800
G1 Z.2 F720
M73 P0 R106
G1 E.8 F2100
M204 S800
;TYPE:Skirt/Brim
;WIDTH:0.42
G1 F1200
G1 X96.582 Y60.619 E.34997
G1 X97.733 Y59.58 E.04862
G1 X99.416 Y58.599 E.06108
G1 X100.887 Y58.108 E.04862
G1 X101.998 Y57.925 E.0353
G1 X104.008 Y57.965 E.06303
G1 X153.217 Y68.85 E1.58021
G1 X155.977 Y69.639 E.09
G1 X157.454 Y70.158 E.04909
G1 X160.1 Y71.269 E.08998
G1 X161.505 Y71.961 E.04911
G1 X164.073 Y73.425 E.09268
G1 X166.448 Y75.037 E.09
G1 X168.756 Y76.885 E.0927
G1 X170.911 Y78.91 E.09272
G1 X171.985 Y80.05 E.04911
G1 X173.914 Y82.37 E.0946
G1 X175.537 Y84.663 E.08808
G1 X176.32 Y85.917 E.04635
G1 X177.771 Y88.593 E.09544
G1 X178.396 Y89.933 E.04636
G1 X179.455 Y92.601 E.09
G1 X180.349 Y95.51 E.09542
M73 Q0 S107
G1 X180.697 Y96.948 E.04639
G1 X181.208 Y99.772 E.08998
G1 X181.51 Y102.801 E.09544
G1 X181.567 Y104.278 E.04634
G1 X181.51 Y107.148 E.09
G1 X181.208 Y110.177 E.09544
G1 X180.697 Y113.001 E.08998
G1 X180.349 Y114.438 E.04636
G1 X179.455 Y117.348 E.09545
G1 X178.396 Y120.015 E.08997
G1 X177.771 Y121.355 E.04636
G1 X176.32 Y124.031 E.09544
G1 X175.537 Y125.285 E.04635
G1 X173.878 Y127.627 E.08999
G1 X171.926 Y129.963 E.09545
G1 X170.911 Y131.039 E.04638
G1 X168.822 Y133.007 E.08999
G1 X167.62 Y134.01 E.04909
G1 X165.312 Y135.716 E.08999
G1 X164 Y136.569 E.04907
G1 X161.505 Y137.988 E.09
G1 X160.1 Y138.679 E.04909
G1 X157.454 Y139.791 E.08999
G1 X155.977 Y140.31 E.04909
G1 X153.136 Y141.118 E.09261
G1 X104.018 Y152.11 E1.57815
G1 X102.071 Y152.148 E.06106
G1 X100.933 Y151.961 E.03616
G1 X99.462 Y151.47 E.04862
G1 X97.779 Y150.488 E.0611
G1 X96.628 Y149.449 E.04862
G1 X79.306 Y127.166 E.88494
G1 X77.789 Y124.969 E.08371
G1 X76.073 Y121.987 E.10787
G1 X74.956 Y119.616 E.08218
G1 X74.012 Y117.173 E.08212
G1 X73.242 Y114.671 E.08208
G1 X72.65 Y112.121 E.08208
G1 X72.239 Y109.537 E.08204
G1 X72.011 Y106.929 E.08208
G1 X71.962 Y105.131 E.0564
G1 X72.048 Y102.515 E.08207
G1 X72.306 Y100.005 E.07911
G1 X72.734 Y97.519 E.07909
G1 X73.33 Y95.067 E.07912
G1 X74.09 Y92.66 E.07914
G1 X74.995 Y90.353 E.0777
G1 X76.075 Y88.069 E.07922
G1 X77.307 Y85.865 E.07917
G1 X78.685 Y83.749 E.07917
G1 X89.715 Y69.494 E.56513
M204 S1000
;WIPE_START
G1 F8640
G1 X89.752 Y69.447 E-.01381
G1 X91.835 Y66.754 E-.78619
;WIPE_END
G1 Z.6 F720
; printing object Body3.stl id:0 copy 0
G1 X98.761 Y138.979 F10800
G1 Z.2 F720
G1 E.8 F2100
M204 S800
;TYPE:Support material
G1 F1200
G1 X101.438 Y139.701 E.08693
G1 X104.893 Y140.366 E.11032
G1 X106.149 Y140.523 E.03969
G1 X108.379 Y140.577 E.06994
G1 X108.791 Y141.417 E.02934
G1 X109.103 Y142.527 E.03615
G1 X109.208 Y143.676 E.03618
G1 X109.103 Y144.825 E.03618
G1 X108.791 Y145.935 E.03615
G1 X108.283 Y146.971 E.03618
G1 X107.607 Y147.882 E.03557
G1 X106.739 Y148.69 E.03718
G1 X105.779 Y149.302 E.0357
G1 X104.709 Y149.735 E.03619
G1 X103.579 Y149.966 E.03616
G1 X102.426 Y149.989 E.03616
G1 X101.288 Y149.801 E.03616
G1 X100.203 Y149.411 E.03615
G1 X99.207 Y148.829 E.03617
G1 X98.333 Y148.077 E.03615
G1 X97.61 Y147.178 E.03617
G1 X97.093 Y146.221 E.0341
G1 X96.72 Y145.084 E.03752
G1 X96.568 Y143.409 E.05273
G1 X96.721 Y142.269 E.03606
G1 X97.093 Y141.132 E.03751
G1 X97.61 Y140.175 E.0341
G1 X98.332 Y139.277 E.03613
G1 X98.707 Y138.962 E.01536
M204 S1000
G1 X108.66 Y145.776 F10800
M204 S800
G1 F1200
G1 X108.66 Y142.205 E.11197
G1 X108.473 Y141.539 E.02169
G1 X108.241 Y141.067 E.01649
G1 X108.241 Y146.287 E.16367
G1 X107.822 Y147.023 E.02655
G1 X107.822 Y140.896 E.19211
G1 X107.403 Y140.884 E.01314
G1 X107.403 Y147.587 E.21017
G1 X106.984 Y148.008 E.01862
G1 X106.984 Y140.884 E.22337
G1 X106.565 Y140.876 E.01314
G1 X106.565 Y148.39 E.2356
G1 X106.146 Y148.666 E.01573
G1 X106.146 Y140.862 E.24469
G1 X105.727 Y140.824 E.01319
G1 X105.727 Y148.933 E.25425
G1 X105.308 Y149.126 E.01446
G1 X105.308 Y140.775 E.26184
G1 X104.889 Y140.709 E.0133
G1 X104.889 Y149.296 E.26924
G1 X104.47 Y149.437 E.01386
G1 X104.47 Y140.623 E.27636
G1 X104.051 Y140.538 E.01341
G1 X104.051 Y149.523 E.28172
G1 X103.632 Y149.609 E.01341
G1 X103.632 Y140.468 E.28661
G1 X103.213 Y140.398 E.01332
G1 X103.213 Y149.634 E.28959
G1 X102.794 Y149.642 E.01314
G1 X102.794 Y140.328 E.29203
G1 X102.375 Y140.243 E.01341
G1 X102.375 Y149.636 E.29451
G1 X101.956 Y149.567 E.01331
G1 X101.956 Y140.156 E.29508
G1 X101.537 Y140.07 E.01341
G1 X101.537 Y149.498 E.29561
G1 X101.374 Y149.472 E.00518
G1 X101.118 Y149.379 E.00854
G1 X101.118 Y139.972 E.29495
G1 X100.699 Y139.868 E.01354
G1 X100.699 Y149.229 E.29351
G1 X100.28 Y149.063 E.01413
G1 X100.28 Y139.764 E.29156
G1 X99.861 Y139.654 E.01358
G1 X99.861 Y148.818 E.28733
G1 X99.442 Y148.574 E.0152
G1 X99.442 Y139.532 E.28351
G1 X99.023 Y139.41 E.01368
G1 X99.023 Y148.224 E.27636
G1 X98.604 Y147.863 E.01734
G1 X98.604 Y139.491 E.2625
G1 X98.185 Y140.001 E.0207
G1 X98.185 Y147.352 E.23049
G1 X97.766 Y146.754 E.02289
G1 X97.766 Y140.6 E.19295
G1 X97.348 Y141.421 E.02889
G1 X97.348 Y145.933 E.14147
G1 X96.961 Y144.511 E.04621
G1 X96.929 Y142.158 E.07378
M204 S1000
;WIPE_START
G1 F8640
G1 X96.961 Y144.511 E-.54336
G1 X97.253 Y145.583 E-.25664
;WIPE_END
G1 Z.6 F720
G1 X105.354 Y128.735 F10800
G1 Z.2 F720
G1 E.8 F2100
M204 S800
G1 F1200
G1 X106.166 Y129.08 E.02766
G1 X106.755 Y129.737 E.02767
G1 X106.966 Y130.289 E.01853
G1 X106.966 Y131.171 E.02765
G1 X106.754 Y131.723 E.01854
G1 X106.166 Y132.38 E.02765
G1 X105.354 Y132.725 E.02766
G1 X104.764 Y132.746 E.01851
G1 X103.929 Y132.462 E.02765
G1 X103.294 Y131.849 E.02767
G1 X102.979 Y131.025 E.02766
G1 X102.979 Y130.435 E.0185
G1 X103.149 Y129.869 E.01853
G1 X103.688 Y129.171 E.02765
G1 X104.473 Y128.768 E.02767
G1 X105.298 Y128.729 E.0259
M204 S1000
G1 X106.565 Y131.702 F10800
M204 S800
G1 F1200
G1 X106.565 Y130.136 E.0491
G1 X106.146 Y129.505 E.02375
G1 X106.146 Y131.955 E.07682
G1 X105.727 Y132.244 E.01596
G1 X105.727 Y129.216 E.09494
G1 X105.308 Y129.074 E.01387
G1 X105.308 Y132.386 E.10385
G1 X104.889 Y132.411 E.01316
G1 X104.889 Y129.049 E.10541
G1 X104.801 Y129.052 E.00276
G1 X104.47 Y129.127 E.01064
G1 X104.47 Y132.333 E.10052
G1 X104.051 Y132.132 E.01457
G1 X104.051 Y129.328 E.08792
G1 X103.632 Y129.728 E.01816
G1 X103.632 Y132 E.07124
M204 S1000
;WIPE_START
G1 F8640
G1 X103.632 Y129.728 E-.52461
G1 X104.051 Y129.328 E-.13376
G1 X104.051 Y129.941 E-.14163
;WIPE_END
G1 Z.6 F720
G1 X115.054 Y128.635 F10800
G1 Z.2 F720
G1 E.8 F2100
M204 S800
G1 F1200
G1 X115.866 Y128.98 E.02766
G1 X116.291 Y129.39 E.01852
G1 X116.58 Y129.905 E.01852
G1 X116.709 Y130.778 E.02767
G1 X116.58 Y131.355 E.01854
G1 X116.093 Y132.09 E.02765
G1 X115.341 Y132.55 E.02764
G1 X114.464 Y132.646 E.02766
G1 X113.629 Y132.362 E.02765
G1 X112.994 Y131.749 E.02767
G1 X112.743 Y131.215 E.0185
G1 X112.679 Y130.335 E.02766
G1 X112.849 Y129.769 E.01853
G1 X113.388 Y129.071 E.02765
G1 X114.173 Y128.668 E.02767
G1 X114.998 Y128.629 E.0259
M204 S1000
G1 X116.201 Y131.698 F10800
M204 S800
G1 F1200
G1 X116.201 Y129.897 E.05647
G1 X115.783 Y129.353 E.02151
G1 X115.783 Y131.908 E.08011
G1 X115.364 Y132.171 E.01551
G1 X115.364 Y129.089 E.09663
G1 X114.945 Y128.965 E.0137
G1 X114.945 Y132.295 E.10441
G1 X114.526 Y132.309 E.01314
G1 X114.501 Y128.952 E.10526
G1 X114.107 Y129.049 E.01272
G1 X114.107 Y132.212 E.09917
G1 X113.688 Y131.986 E.01493
G1 X113.688 Y129.274 E.08503
G1 X113.269 Y129.715 E.01907
G1 X113.269 Y131.828 E.06625
M204 S1000
;WIPE_START
G1 F8640
G1 X113.269 Y129.715 E-.4879
G1 X113.688 Y129.274 E-.14046
G1 X113.688 Y130.017 E-.17164
;WIPE_END
G1 Z.6 F720
G1 X114.254 Y77.535 F10800
G1 Z.2 F720
G1 E.8 F2100
M204 S800
G1 F1200
G1 X115.066 Y77.88 E.02766
G1 X115.655 Y78.537 E.02767
G1 X115.866 Y79.089 E.01853
G1 X115.866 Y79.971 E.02765
G1 X115.654 Y80.523 E.01854
G1 X115.066 Y81.18 E.02765
G1 X114.541 Y81.45 E.01851
G1 X113.664 Y81.546 E.02766
G1 X112.829 Y81.262 E.02765
G1 X112.194 Y80.649 E.02767
G1 X111.943 Y80.115 E.0185
G1 X111.879 Y79.235 E.02766
G1 X112.194 Y78.411 E.02766
G1 X112.588 Y77.971 E.01852
G1 X113.373 Y77.568 E.02767
G1 X114.198 Y77.529 E.0259
M204 S1000
G1 X115.364 Y80.655 F10800
M204 S800
G1 F1200
G1 X115.364 Y78.716 E.0608
G1 X114.945 Y78.221 E.02033
G1 X114.945 Y80.839 E.08209
G1 X114.526 Y81.088 E.01528
G1 X114.526 Y77.973 E.09767
G1 X114.107 Y77.861 E.0136
G1 X114.107 Y81.2 E.10469
G1 X113.688 Y81.206 E.01314
G1 X113.688 Y77.854 E.1051
G1 X113.269 Y77.962 E.01357
G1 X113.269 Y81.099 E.09836
G1 X112.85 Y80.859 E.01514
G1 X112.85 Y78.201 E.08334
G1 X112.431 Y78.682 E.02
G1 X112.431 Y80.678 E.06258
M204 S1000
;WIPE_START
G1 F8640
G1 X112.431 Y78.682 E-.46088
G1 X112.85 Y78.201 E-.14729
G1 X112.85 Y79.032 E-.19183
;WIPE_END
G1 Z.6 F720
G1 X106.754 Y77.535 F10800
G1 Z.2 F720
G1 E.8 F2100
M204 S800
G1 F1200
G1 X107.566 Y77.88 E.02766
G1 X107.991 Y78.29 E.01852
G1 X108.28 Y78.805 E.01852
G1 X108.409 Y79.678 E.02767
G1 X108.28 Y80.255 E.01854
G1 X107.793 Y80.99 E.02765
G1 X107.041 Y81.45 E.02764
G1 X106.164 Y81.546 E.02766
G1 X105.329 Y81.262 E.02765
G1 X104.694 Y80.649 E.02767
G1 X104.443 Y80.115 E.0185
G1 X104.379 Y79.235 E.02766
G1 X104.549 Y78.669 E.01853
G1 X105.088 Y77.971 E.02765
G1 X105.873 Y77.568 E.02767
G1 X106.698 Y77.529 E.0259
M204 S1000
G1 X107.822 Y80.704 F10800
M204 S800
G1 F1200
G1 X107.822 Y78.65 E.0644
G1 X107.403 Y78.186 E.0196
G1 X107.403 Y80.874 E.08428
G1 X106.984 Y81.105 E.015
G1 X106.984 Y77.955 E.09877
G1 X106.565 Y77.856 E.0135
G1 X106.565 Y81.204 E.10497
G1 X106.146 Y81.198 E.01314
G1 X106.146 Y77.862 E.1046
G1 X105.727 Y77.976 E.01362
G1 X105.727 Y81.084 E.09745
G1 X105.308 Y80.829 E.01538
G1 X105.308 Y78.231 E.08146
G1 X104.889 Y78.756 E.02106
G1 X104.889 Y80.625 E.0586
M204 S1000
;WIPE_START
G1 F8640
G1 X104.889 Y78.756 E-.43156
G1 X105.308 Y78.231 E-.1551
G1 X105.308 Y79.155 E-.21334
;WIPE_END
G1 Z.6 F720
G1 X103.009 Y60.084 F10800
G1 Z.2 F720
G1 E.8 F2100
M204 S800
G1 F1200
G1 X103.568 Y60.109 E.01754
G1 X104.663 Y60.334 E.03505
G1 X105.732 Y60.766 E.03615
G1 X106.705 Y61.386 E.03617
G1 X107.55 Y62.171 E.03616
G1 X108.237 Y63.098 E.03618
G1 X108.745 Y64.133 E.03615
G1 X109.057 Y65.244 E.03618
G1 X109.162 Y66.392 E.03614
G1 X109.057 Y67.541 E.03618
G1 X108.745 Y68.651 E.03615
G1 X108.375 Y69.404 E.02631
G1 X106.499 Y69.43 E.05883
G1 X105.644 Y69.524 E.02697
G1 X101.398 Y70.369 E.13574
G1 X98.66 Y71.113 E.08896
G1 X98.286 Y70.791 E.01547
G1 X97.564 Y69.893 E.03613
G1 X97.047 Y68.936 E.0341
G1 X96.675 Y67.8 E.03748
G1 X96.522 Y66.66 E.03606
G1 X96.579 Y65.511 E.03607
G1 X96.674 Y64.984 E.01679
G1 X97.047 Y63.847 E.03752
G1 X97.564 Y62.89 E.0341
G1 X98.287 Y61.991 E.03617
G1 X99.161 Y61.239 E.03615
G1 X100.157 Y60.658 E.03615
G1 X101.242 Y60.267 E.03616
G1 X102.353 Y60.084 E.0353
G1 X102.952 Y60.084 E.01878
M204 S1000
G1 X108.66 Y68.327 F10800
M204 S800
G1 F1200
G1 X108.66 Y65.084 E.10168
G1 X108.427 Y64.255 E.027
G1 X108.241 Y63.875 E.01327
G1 X108.241 Y68.908 E.15781
G1 X108.164 Y69.065 E.00548
G1 X107.822 Y69.065 E.01072
G1 X107.822 Y63.107 E.18681
G1 X107.403 Y62.543 E.02203
G1 X107.403 Y69.065 E.20449
G1 X106.984 Y69.073 E.01314
G1 X106.984 Y62.109 E.21835
G1 X106.565 Y61.719 E.01795
G1 X106.565 Y69.088 E.23105
G1 X106.146 Y69.124 E.01319
G1 X106.146 Y61.432 E.24118
G1 X105.727 Y61.165 E.01558
G1 X105.727 Y69.17 E.25099
G1 X105.308 Y69.24 E.01332
G1 X105.308 Y60.961 E.25958
G1 X104.889 Y60.791 E.01418
G1 X104.889 Y69.318 E.26736
G1 X104.47 Y69.424 E.01355
G1 X104.47 Y60.64 E.27542
G1 X104.051 Y60.555 E.01341
G1 X104.051 Y69.523 E.28119
G1 X103.632 Y69.592 E.01331
G1 X103.632 Y60.469 E.28605
G1 X103.213 Y60.433 E.01319
G1 X103.213 Y69.662 E.28937
G1 X102.794 Y69.732 E.01332
G1 X102.794 Y60.424 E.29185
G1 X102.375 Y60.425 E.01314
G1 X102.375 Y69.817 E.29448
G1 X101.956 Y69.904 E.01342
G1 X101.956 Y60.493 E.29508
G1 X101.537 Y60.562 E.01331
G1 X101.537 Y69.991 E.29564
G1 X101.118 Y70.088 E.01348
G1 X101.118 Y60.672 E.29523
G1 X100.699 Y60.823 E.01396
G1 X100.699 Y70.193 E.29379
G1 X100.28 Y70.297 E.01354
G1 X100.28 Y60.979 E.29216
G1 X99.861 Y61.223 E.0152
G1 X99.861 Y70.407 E.28796
G1 X99.442 Y70.529 E.01368
G1 X99.442 Y61.468 E.2841
G1 X99.023 Y61.805 E.01686
G1 X99.023 Y70.65 E.27733
G1 X98.739 Y70.733 E.00928
G1 X98.604 Y70.617 E.00558
G1 X98.604 Y62.166 E.26498
G1 X98.185 Y62.659 E.02029
G1 X98.185 Y70.124 E.23406
G1 X97.766 Y69.554 E.02218
G1 X97.766 Y63.229 E.19832
G1 X97.348 Y64.013 E.02786
M73 P1 R106
M73 Q1 S107
G1 X97.348 Y68.77 E.14915
G1 X96.929 Y67.299 E.04796
G1 X96.929 Y64.711 E.08114
M204 S1000
;WIPE_START
G1 F8640
G1 X96.929 Y67.299 E-.59758
G1 X97.169 Y68.142 E-.20242
;WIPE_END
G1 Z.6 F720
G1 X169.186 Y94.162 F10800
G1 Z.2 F720
G1 E.8 F2100
M204 S800
G1 F1200
G1 X169.745 Y94.353 E.01852
G1 X170.423 Y94.917 E.02765
G1 X170.798 Y95.716 E.02767
G1 X170.798 Y96.598 E.02765
G1 X170.423 Y97.397 E.02767
G1 X169.998 Y97.806 E.01849
G1 X169.186 Y98.151 E.02766
G1 X168.596 Y98.173 E.01851
G1 X168.024 Y98.024 E.01853
G1 X167.307 Y97.51 E.02766
G1 X166.875 Y96.741 E.02766
G1 X166.811 Y95.861 E.02766
G1 X167.126 Y95.038 E.02763
G1 X167.52 Y94.598 E.01852
G1 X168.305 Y94.194 E.02768
G1 X169.13 Y94.156 E.02589
M204 S1000
G1 X170.25 Y97.336 F10800
M204 S800
G1 F1200
M73 P1 R105
G1 X170.25 Y95.27 E.06478
G1 X169.831 Y94.809 E.01953
G1 X169.831 Y97.504 E.0845
G1 X169.412 Y97.734 E.01499
G1 X169.412 Y94.58 E.09889
G1 X168.993 Y94.482 E.01349
G1 X168.993 Y97.831 E.10501
G1 X168.574 Y97.824 E.01314
G1 X168.574 Y94.49 E.10454
G1 X168.155 Y94.604 E.01362
G1 X168.155 Y97.709 E.09736
G1 X167.736 Y97.452 E.01541
G1 X167.736 Y94.861 E.08124
G1 X167.317 Y95.391 E.02118
G1 X167.317 Y97.245 E.05813
M204 S1000
;WIPE_START
G1 F8640
G1 X167.317 Y95.391 E-.42809
G1 X167.736 Y94.861 E-.156
G1 X167.736 Y95.796 E-.21591
;WIPE_END
G1 Z.6 F720
G1 X169.574 Y102.77 F10800
G1 Z.2 F720
G1 E.8 F2100
M204 S800
G1 F1200
G1 X170.133 Y102.961 E.01852
G1 X170.811 Y103.525 E.02765
G1 X171.1 Y104.04 E.01852
G1 X171.228 Y104.913 E.02766
G1 X170.974 Y105.757 E.02764
G1 X170.386 Y106.414 E.02765
G1 X169.574 Y106.759 E.02766
G1 X168.983 Y106.781 E.01854
G1 X168.149 Y106.496 E.02763
G1 X167.514 Y105.884 E.02765
G1 X167.198 Y105.06 E.02767
G1 X167.198 Y104.469 E.01853
G1 X167.369 Y103.904 E.01851
G1 X167.908 Y103.205 E.02768
G1 X168.692 Y102.802 E.02764
G1 X169.517 Y102.764 E.02589
M204 S1000
G1 X170.668 Y105.909 F10800
M204 S800
G1 F1200
G1 X170.668 Y103.925 E.06221
G1 X170.25 Y103.443 E.02
G1 X170.25 Y106.086 E.08287
G1 X169.831 Y106.328 E.01517
G1 X169.831 Y103.201 E.09804
